public/new/vuesaxboldwallet21.svg

<svg fill="none" height="70" viewBox="0 0 71 70" width="71" xmlns="http://www.w3.org/2000/svg"><g fill="#282c40"><path d="m64.667 31.9965v6.0083c0 1.6042-1.2834 2.9167-2.9167 2.975h-5.7167c-3.15 0-6.0375-2.3041-6.3-5.4541-.175-1.8375.525-3.5584 1.75-4.7542 1.0792-1.1083 2.5667-1.75 4.2-1.75h6.0667c1.6333.0583 2.9167 1.3708 2.9167 2.975z"/><path d="m60.2038 45.3548h-4.1708c-5.5417 0-10.2083-4.1708-10.675-9.4791-.2625-3.0334.8458-6.0667 3.0625-8.225 1.8667-1.9251 4.4625-3.0042 7.2625-3.0042h4.5208c.8459 0 1.5459-.7 1.4584-1.5458-.6417-7.0875-5.3375-11.9292-12.3084-12.7459-.7-.1166-1.4291-.1458-2.1875-.1458h-26.25c-.8166 0-1.6041.0583-2.3625.175-7.4375.9333-12.22079 6.475-12.22079 14.4083v20.4167c0 8.05 6.53329 14.5833 14.58329 14.5833h26.25c8.1667 0 13.7959-5.1041 14.4959-12.8916.0875-.8459-.6125-1.5459-1.4584-1.5459zm-21.7875-16.9166h-17.5c-1.1958 0-2.1875-.9917-2.1875-2.1875 0-1.1959.9917-2.1875 2.1875-2.1875h17.5c1.1959 0 2.1875.9916 2.1875 2.1875 0 1.1958-.9916 2.1875-2.1875 2.1875z"/></g></svg>

<svg width="71" height="70" viewBox="0 0 71 70" fill="none" xmlns="http://www.w3.org/2000/svg">
<path d="M64.667 31.9965V38.0048C64.667 39.609 63.3836 40.9215 61.7503 40.9798H56.0336C52.8836 40.9798 49.9961 38.6757 49.7336 35.5257C49.5586 33.6882 50.2586 31.9673 51.4836 30.7715C52.5628 29.6632 54.0503 29.0215 55.6836 29.0215H61.7503C63.3836 29.0798 64.667 30.3923 64.667 31.9965Z" fill="#282C40"/>
<path d="M60.2038 45.3548H56.033C50.4913 45.3548 45.8247 41.184 45.358 35.8757C45.0955 32.8423 46.2038 29.809 48.4205 27.6507C50.2872 25.7256 52.883 24.6465 55.683 24.6465H60.2038C61.0497 24.6465 61.7497 23.9465 61.6622 23.1007C61.0205 16.0132 56.3247 11.1715 49.3538 10.3548C48.6538 10.2382 47.9247 10.209 47.1663 10.209H20.9163C20.0997 10.209 19.3122 10.2673 18.5538 10.384C11.1163 11.3173 6.33301 16.859 6.33301 24.7923V45.209C6.33301 53.259 12.8663 59.7923 20.9163 59.7923H47.1663C55.333 59.7923 60.9622 54.6882 61.6622 46.9007C61.7497 46.0548 61.0497 45.3548 60.2038 45.3548ZM38.4163 28.4382H20.9163C19.7205 28.4382 18.7288 27.4465 18.7288 26.2507C18.7288 25.0548 19.7205 24.0632 20.9163 24.0632H38.4163C39.6122 24.0632 40.6038 25.0548 40.6038 26.2507C40.6038 27.4465 39.6122 28.4382 38.4163 28.4382Z" fill="#282C40"/>
</svg>
